Newaita-dark/actions/16/edit-paste-style.svg

<svg height="16" viewBox="0 0 16 16" width="16" xmlns="http://www.w3.org/2000/svg"><g fill="#e0e0e0"><path d="m8.601562 2.109375v6.617187c0 .363282-.296874.660157-.664062.660157-.363281 0-.660156-.296875-.660156-.660157v-6.617187c0-.363281.296875-.660156.660156-.660156.367188 0 .664062.296875.664062.660156zm0 0"/><path d="m12.570312 10.046875h-9.261718c-.367188 0-.664063-.296875-.664063-.660156 0-.367188.296875-.660157.664063-.660157h9.261718c.363282 0 .660157.292969.660157.660157 0 .363281-.296875.660156-.660157.660156zm0 0"/><path d="m3.308594 10.769531c-.191406 0-.34375.152344-.34375.34375 0 .992188.019531 2.128907-1.1875 3.03125-.261719.199219-.121094.617188.207031.617188h2.644531c.070313 0 .136719-.019531.191406-.054688.675782-.453125 1.199219-.90625 1.671876-1.351562-.082032.21875-.226563.476562-.492188.875-.152344.226562.011719.53125.285156.53125h4.960938c.074218 0 .144531-.023438.207031-.066407 1.4375-1.082031 1.460937-2.59375 1.457031-3.582031 0-.191406-.152344-.34375-.339844-.34375zm0 0"/></g></svg>

<svg xmlns="http://www.w3.org/2000/svg" xmlns:xlink="http://www.w3.org/1999/xlink" width="16px" height="16px" viewBox="0 0 16 16" version="1.1">
<g id="surface1">
     <defs>
  <style id="current-color-scheme" type="text/css">
   .ColorScheme-Text { color:#eeeeee; } .ColorScheme-Highlight { color:#424242; }
  </style>
 </defs>
<path style="fill:currentColor" class="ColorScheme-Text" d="M 8.601562 2.109375 L 8.601562 8.726562 C 8.601562 9.089844 8.304688 9.386719 7.9375 9.386719 C 7.574219 9.386719 7.277344 9.089844 7.277344 8.726562 L 7.277344 2.109375 C 7.277344 1.746094 7.574219 1.449219 7.9375 1.449219 C 8.304688 1.449219 8.601562 1.746094 8.601562 2.109375 Z M 8.601562 2.109375 "/>
     <defs>
  <style id="current-color-scheme" type="text/css">
   .ColorScheme-Text { color:#eeeeee; } .ColorScheme-Highlight { color:#424242; }
  </style>
 </defs>
<path style="fill:currentColor" class="ColorScheme-Text" d="M 12.570312 10.046875 L 3.308594 10.046875 C 2.941406 10.046875 2.644531 9.75 2.644531 9.386719 C 2.644531 9.019531 2.941406 8.726562 3.308594 8.726562 L 12.570312 8.726562 C 12.933594 8.726562 13.230469 9.019531 13.230469 9.386719 C 13.230469 9.75 12.933594 10.046875 12.570312 10.046875 Z M 12.570312 10.046875 "/>
     <defs>
  <style id="current-color-scheme" type="text/css">
   .ColorScheme-Text { color:#eeeeee; } .ColorScheme-Highlight { color:#424242; }
  </style>
 </defs>
<path style="fill:currentColor" class="ColorScheme-Text" d="M 3.308594 10.769531 C 3.117188 10.769531 2.964844 10.921875 2.964844 11.113281 C 2.964844 12.105469 2.984375 13.242188 1.777344 14.144531 C 1.515625 14.34375 1.65625 14.761719 1.984375 14.761719 L 4.628906 14.761719 C 4.699219 14.761719 4.765625 14.742188 4.820312 14.707031 C 5.496094 14.253906 6.019531 13.800781 6.492188 13.355469 C 6.410156 13.574219 6.265625 13.832031 6 14.230469 C 5.847656 14.457031 6.011719 14.761719 6.285156 14.761719 L 11.246094 14.761719 C 11.320312 14.761719 11.390625 14.738281 11.453125 14.695312 C 12.890625 13.613281 12.914062 12.101562 12.910156 11.113281 C 12.910156 10.921875 12.757812 10.769531 12.570312 10.769531 Z M 3.308594 10.769531 "/>
</g>
</svg>
